census/images/census-logo.svg

<svg width="500" height="121" viewBox="0 0 500 121" fill="none" xmlns="http://www.w3.org/2000/svg">
<g clip-path="url(#clip0)">
<path d="M170.596 56.787C170.596 34.3147 185.033 18.7426 205.775 18.7426C213.816 18.7426 221.126 20.9805 226.974 25.4563V39.5365C220.76 33.5687 213.724 30.5848 206.14 30.5848C192.069 30.5848 183.023 40.6554 183.023 56.787C183.023 72.6389 192.069 82.9892 206.14 82.9892C213.724 82.9892 220.669 80.0053 226.974 74.0376V88.1177C221.126 92.5936 213.816 94.8315 205.775 94.8315C185.033 94.8315 170.596 79.2594 170.596 56.787Z" fill="white"/>
<path d="M284.996 70.5875H248.721C249.817 79.7257 255.391 84.2015 265.168 84.2015C271.656 84.2015 277.595 82.4298 282.255 79.1662V90.076C277.503 93.1531 271.381 94.8316 264.802 94.8316C247.898 94.8316 237.39 84.2015 237.39 67.2307C237.39 50.5396 247.441 39.0703 262.153 39.0703C275.859 39.0703 285.088 49.7004 285.088 65.832V70.5875H284.996ZM248.995 61.4494H274.123C273.3 53.5235 269.188 49.4206 262.244 49.4206C255.117 49.3274 250.365 53.71 248.995 61.4494Z" fill="white"/>
<path d="M341.466 58.5588V93.7126H329.952V60.7967C329.952 54.083 326.206 50.0734 320.267 50.0734C315.332 50.0734 310.855 52.964 308.662 57.6263V93.7126H297.149V40.1893H307.84V47.9287C311.312 42.2407 316.794 39.0703 323.556 39.0703C334.43 39.0703 341.466 46.8097 341.466 58.5588Z" fill="white"/>
<path d="M352.613 90.076V78.1405C358.004 82.4298 364.309 84.4812 371.711 84.4812C378.655 84.4812 381.944 82.6163 381.944 78.7C381.944 75.6228 380.117 73.7579 376.005 72.8254L366.137 70.5875C357.73 68.6294 353.253 63.4076 353.253 55.5749C353.253 45.4111 361.294 39.0703 374.452 39.0703C380.939 39.0703 386.605 40.469 390.716 43.0799V55.0154C386.148 51.1923 380.665 49.2341 374.269 49.2341C367.781 49.2341 364.401 51.2856 364.401 55.1087C364.401 57.906 366.228 59.6777 369.883 60.4237L379.751 62.7549C388.615 64.8995 393.275 69.9348 393.275 77.7675C393.275 88.3043 384.868 94.6451 371.254 94.6451C364.035 94.8316 357.73 93.1531 352.613 90.076Z" fill="white"/>
<path d="M435.672 40.1892H447.186V93.6193H436.769V85.6001C433.297 91.4746 427.906 94.7382 421.053 94.7382C410.453 94.7382 403.235 86.9056 403.235 75.343V40.1892H414.748V73.0119C414.748 79.6324 418.586 83.7352 424.433 83.7352C429.368 83.7352 433.662 80.8446 435.764 75.9958V40.1892H435.672Z" fill="white"/>
<path d="M459.521 90.076V78.1405C464.912 82.4298 471.217 84.4812 478.618 84.4812C485.563 84.4812 488.852 82.6163 488.852 78.7C488.852 75.6228 487.025 73.7579 482.913 72.8254L473.045 70.5875C464.638 68.6294 460.161 63.4076 460.161 55.5749C460.161 45.4111 468.202 39.0703 481.36 39.0703C487.847 39.0703 493.512 40.469 497.624 43.0799V55.0154C493.055 51.1923 487.573 49.2341 481.177 49.2341C474.689 49.2341 471.308 51.2856 471.308 55.1087C471.308 57.906 473.136 59.6777 476.791 60.4237L486.659 62.7549C495.523 64.8995 500.183 69.9348 500.183 77.7675C500.183 88.3043 491.776 94.6451 478.162 94.6451C470.852 94.8316 464.638 93.1531 459.521 90.076Z" fill="white"/>
<path d="M136.422 60.3303L105.994 6.52724C103.71 2.51765 99.5066 0 94.9379 0H41.4839C36.9152 0 32.712 2.51765 30.4276 6.52724L26.5899 13.3342H94.8465L87.2624 26.6684H19.0058L11.4218 40.0959H79.6784L72.0943 53.4301H3.83772L0 60.3303L3.74634 66.8575H72.0029L79.4956 80.1918H11.239L18.8231 93.526H87.0797L94.6637 106.86H26.4072L30.4276 113.947C32.712 117.956 36.9152 120.474 41.4839 120.474H94.9379C99.5066 120.474 103.71 117.956 105.994 113.947L136.422 60.3303Z" fill="#EF54AC"/>
</g>
<defs>
<clipPath id="clip0">
<rect width="500" height="120.567" fill="white"/>
</clipPath>
</defs>
</svg>

<svg width="137" height="121" fill="none" xmlns="http://www.w3.org/2000/svg"><g clip-path="url(#a)"><path d="M136.422 60.33 105.994 6.527C103.71 2.517 99.507 0 94.938 0H41.484c-4.569 0-8.772 2.518-11.056 6.527l-3.838 6.807h68.257l-7.585 13.334H19.006l-7.584 13.428h68.256L72.094 53.43H3.838L0 60.33l3.746 6.528h68.257l7.493 13.334H11.239l7.584 13.334H87.08l7.584 13.334H26.407l4.02 7.087c2.285 4.009 6.488 6.527 11.057 6.527h53.454c4.569 0 8.772-2.518 11.056-6.527l30.428-53.617Z" fill="#EF54AC"/></g><defs><clipPath id="a"><path fill="#fff" d="M0 0h500v120.567H0z"/></clipPath></defs></svg>
